components/Common/Svg/svgs/processAutomation.svg

<svg
  width="90"
  height="90"
  viewBox="0 0 90 90"
  fill="none"
  xmlns="http://www.w3.org/2000/svg"
>
  <circle
    opacity="0.5"
    cx="45"
    cy="45"
    r="45"
    fill="#FFE603"
  ></circle>
  <path
    d="M61.5395 53.9605V34.9717C61.5395 33.2815 60.1634 31.9053 58.4731 31.9053H50.9868C50.6129 31.1724 50.1118 30.5068 49.491 29.9459C48.0626 28.667 46.148 28.0612 44.2334 28.2706C41.9748 28.5174 40.0079 29.9459 38.9982 31.9053H31.5194C29.8292 31.9053 28.4531 33.2815 28.4531 34.9717V53.9679H26V57.2885L28.812 60.0931H61.188L64 57.2811V53.9605H61.5395ZM39.5367 34.1864C39.8733 31.7408 41.9075 29.7664 44.368 29.4897C45.9685 29.3102 47.4942 29.7963 48.6759 30.8583C49.8426 31.9053 50.5156 33.4011 50.5156 34.9717C50.5156 36.3777 49.9846 37.7164 49.0274 38.741C47.7634 40.0872 47.0081 41.7774 46.866 43.5499H43.1415C43.0069 41.7325 42.2814 40.0722 41.0624 38.8233C39.8508 37.5967 39.2974 35.9065 39.5367 34.1864ZM29.6796 34.9717C29.6796 33.9546 30.5023 33.1319 31.5119 33.1319H38.5121C38.4298 33.4236 38.3625 33.7152 38.3177 34.0144C38.026 36.1159 38.7066 38.1801 40.1724 39.6759C41.1521 40.678 41.7654 42.0616 41.9 43.5424H40.7034V44.769H49.2816V43.5424H48.085C48.2271 42.0841 48.8628 40.6855 49.9099 39.5712C51.084 38.3222 51.7347 36.6843 51.7347 34.9642C51.7347 34.336 51.6375 33.7227 51.4729 33.1244H58.4806C59.4977 33.1244 60.3204 33.9471 60.3204 34.9642V51.5074H29.6796V34.9717ZM29.6796 52.7414H60.3204V53.9679H48.0626V55.1945H41.9299V53.9679H29.6796V52.7414ZM62.7735 56.78H62.766L60.6719 58.8741H29.3206L27.2265 56.78V55.1945H40.7109V56.421H49.2891V55.1945H62.7735V56.78Z"
    fill="black"
  ></path>
  <path
    d="M54.8047 56.4209H53.5781V57.6474H54.8047V56.4209Z"
    fill="black"
  ></path>
  <path
    d="M57.2578 56.4209H56.0312V57.6474H57.2578V56.4209Z"
    fill="black"
  ></path>
  <path
    d="M59.7109 56.4209H58.4844V57.6474H59.7109V56.4209Z"
    fill="black"
  ></path>
  <path
    d="M47.4494 46.0029H42.5507H40.7109V47.2295H42.5507V47.8427H42.5433C42.5433 48.8598 43.3659 49.6825 44.3831 49.6825H45.6096C46.6267 49.6825 47.4494 48.8598 47.4494 47.8427V47.2295H49.2892V46.0029H47.4494ZM46.2228 47.8427C46.2228 48.1793 45.9461 48.456 45.6096 48.456H44.3831C44.0465 48.456 43.7698 48.1793 43.7698 47.8427V47.2295H46.2228V47.8427Z"
    fill="black"
  ></path>
  <path
    d="M48.6792 36.1907V34.9641H48.0061C47.9238 34.5752 47.7742 34.2088 47.5573 33.8872L48.036 33.4085L47.161 32.5485L46.6823 33.0271C46.3607 32.8177 46.0017 32.6606 45.6054 32.5784V31.9053H44.3788V32.5784C43.9899 32.6606 43.6235 32.8102 43.3019 33.0271L42.8232 32.5485L41.9557 33.416L42.4343 33.8946C42.2249 34.2162 42.0679 34.5752 41.9856 34.9716H41.3125V36.1981H41.9856C42.0679 36.587 42.2249 36.946 42.4418 37.2676L41.9632 37.7463L42.8307 38.6138L43.3094 38.1352C43.6309 38.3446 43.9899 38.5016 44.3863 38.5839V39.257H45.6128V38.5839C46.0017 38.5016 46.3682 38.352 46.6898 38.1352L47.1684 38.6138L48.036 37.7463L47.5573 37.2676C47.7667 36.946 47.9238 36.587 48.0061 36.1907H48.6792ZM44.9921 37.4247C43.975 37.4247 43.1523 36.602 43.1523 35.5849C43.1523 34.5677 43.975 33.7451 44.9921 33.7451C46.0092 33.7451 46.8319 34.5677 46.8319 35.5849C46.8319 36.602 46.0092 37.4247 44.9921 37.4247Z"
    fill="black"
  ></path>
</svg>

<svg width="90" height="90" viewBox="0 0 90 90" fill="none" xmlns="http://www.w3.org/2000/svg"><circle opacity=".5" cx="45" cy="45" r="45" fill="#FFE603"/><path d="M61.54 53.96V34.973a3.07 3.07 0 0 0-3.067-3.067h-7.486a6.794 6.794 0 0 0-1.496-1.96 6.776 6.776 0 0 0-5.258-1.674c-2.258.246-4.225 1.675-5.235 3.634H31.52a3.07 3.07 0 0 0-3.066 3.067v18.996H26v3.32l2.812 2.805h32.376L64 57.281v-3.32h-2.46ZM39.536 34.187c.336-2.445 2.37-4.42 4.831-4.696 1.6-.18 3.126.306 4.308 1.368a5.532 5.532 0 0 1 1.84 4.114 5.506 5.506 0 0 1-1.489 3.769c-1.264 1.346-2.019 3.036-2.161 4.809h-3.724c-.135-1.817-.86-3.478-2.08-4.727a5.47 5.47 0 0 1-1.525-4.637Zm-9.857.786c0-1.017.822-1.84 1.832-1.84h7c-.082.292-.15.583-.194.882a6.713 6.713 0 0 0 1.854 5.662c.98 1.002 1.593 2.386 1.728 3.866h-1.197v1.227h8.579v-1.227h-1.197a6.772 6.772 0 0 1 1.825-3.97 6.707 6.707 0 0 0 1.825-4.608c0-.628-.097-1.241-.262-1.84h7.008c1.017 0 1.84.823 1.84 1.84v16.543H29.68V34.972Zm0 17.77h30.64v1.226H48.063v1.226H41.93v-1.226H29.68V52.74Zm33.093 4.038h-.007l-2.094 2.094H29.32l-2.095-2.094v-1.586h13.485v1.227h8.578v-1.227h13.484v1.586Z" fill="#000"/><path d="M54.805 56.42h-1.227v1.227h1.227v-1.226ZM57.258 56.42H56.03v1.227h1.227v-1.226ZM59.71 56.42h-1.226v1.227h1.227v-1.226ZM47.45 46.003h-6.74v1.227h1.84v.613h-.007c0 1.017.823 1.84 1.84 1.84h1.227c1.017 0 1.84-.823 1.84-1.84v-.614h1.84v-1.226h-1.84Zm-1.227 1.84a.616.616 0 0 1-.613.613h-1.227a.616.616 0 0 1-.613-.613v-.614h2.453v.614ZM48.68 36.19v-1.226h-.674a3.05 3.05 0 0 0-.449-1.077l.479-.479-.875-.86-.479.48a3.131 3.131 0 0 0-1.077-.45v-.673H44.38v.673a3.048 3.048 0 0 0-1.077.45l-.479-.48-.867.868.478.479c-.21.321-.366.68-.448 1.077h-.673v1.226h.673c.082.389.239.748.456 1.07l-.479.478.868.868.478-.479c.322.21.68.367 1.077.449v.673h1.227v-.673a3.052 3.052 0 0 0 1.077-.449l.478.479.868-.868-.479-.478c.21-.322.367-.681.45-1.077h.672Zm-3.688 1.235a1.839 1.839 0 0 1-1.84-1.84c0-1.017.823-1.84 1.84-1.84 1.017 0 1.84.823 1.84 1.84 0 1.017-.823 1.84-1.84 1.84Z" fill="#000"/></svg>
